X:1
T: Miss Haldane of Gleneagles
C:
R:Strathspey
Q: 128
K:A
M:4/4
L:1/16
|:E2|A3E CA,3 A3B c3A|B3c dcBA GABG E2FG|A3E CA,3 A3B cf3|ec3 B3c A6 E2|
A3E CA,3 A3B c3A|B3c dcBA GABG E2FG|A3E CA,3 A3B cf3|ec3 B3c A6 cd|
e3A ce3 Ae3 c3e|d3e fedc dcBA B2cd|e3A ce3 Ae3 c3f|ec3 B3c A6 cd|
e3A ce3 Ae3 c3e|d3e fedc dcBA Bc3|F3A E3A F3A df3|ec3 B3c A3A A2:|
